resources/haticons/SVG/compare.svg

<!-- Generated by IcoMoon.io -->
<svg version="1.1" xmlns="http://www.w3.org/2000/svg" width="24" height="24" viewBox="0 0 24 24">
<title>compare</title>
<path d="M18.984 3q0.797 0 1.406 0.609t0.609 1.406v13.969q0 0.797-0.609 1.406t-1.406 0.609h-4.969v-9l4.969 6v-12.984h-4.969v-2.016h4.969zM9.984 18v-6l-4.969 6h4.969zM9.984 3v-2.016h2.016v22.031h-2.016v-2.016h-4.969q-0.797 0-1.406-0.609t-0.609-1.406v-13.969q0-0.797 0.609-1.406t1.406-0.609h4.969z"></path>
</svg>

<svg xmlns="http://www.w3.org/2000/svg" width="24" height="24"><path d="M18.984 3q.797 0 1.406.609t.609 1.406v13.969q0 .797-.609 1.406t-1.406.609h-4.969v-9l4.969 6V5.015h-4.969V2.999h4.969zm-9 15v-6l-4.969 6h4.969zm0-15V.984H12v22.031H9.984v-2.016H5.015q-.797 0-1.406-.609T3 18.984V5.015q0-.797.609-1.406T5.015 3h4.969z"/></svg>
